X:1
T:Recibe Señor
T:Recibe Señor - Puente
T:Misa - Ofertorio (Cuaresma)
T:Jésed
C:Jésed
%%score 1 2 3
L:1/8
Q:1/4=80
M:4/4
K:D
V:1 treble transpose=-14 nm="Tenor Saxophone" snm="T. Sax."
V:2 treble transpose=-9 nm="Alto Saxophone" snm="A. Sax."
V:3 tab stafflines=6 strings=E2,A2,D3,G3,B3,E4 nm="Electric Guitar" snm="El. Guit."
V:1
[K:E] z2 z2 | c'4 b2 a2 | gafg efde | cBcd ecef | e2 d6 |] %5
V:2
[K:B] z2 z2 | g4 f2 e2 | decd BcAB | GFGA BGBc | B2 A6 |] %5
V:3
"Am"!mp! [!5!A,,!4!E,!3!A,!2!=C!1!E]2"D7" [!4!D,!3!A,!2!C!1!F]2 | %1
"G" [!6!G,,!5!B,,!4!D,!3!G,!2!D!1!G]2 [!6!G,,!5!B,,!4!D,!3!G,!2!D!1!G][!6!G,,!5!B,,!4!D,!3!G,!2!D!1!G]"A" [!5!A,,!4!E,!3!A,!2!C!1!E]2 [!5!A,,!4!E,!3!A,!2!C!1!E][!5!A,,!4!E,!3!A,!2!C!1!E] | %2
"D" [!4!D,!3!A,!2!D!1!F]2"A" [!5!A,,!4!E,!3!A,!2!C!1!E]2"Bm" [!5!B,,!4!F,!3!B,!2!D!1!F]2"A" [!5!A,,!4!E,!3!A,!2!C!1!E]2 | %3
"G" [!6!G,,!5!B,,!4!D,!3!G,!2!D!1!G]2 [!6!G,,!5!B,,!4!D,!3!G,!2!D!1!G][!6!G,,!5!B,,!4!D,!3!G,!2!D!1!G]"Em" [!6!E,,!5!B,,!4!E,!3!G,!2!B,!1!E]2 [!6!E,,!5!B,,!4!E,!3!G,!2!B,!1!E][!6!E,,!5!B,,!4!E,!3!G,!2!B,!1!E] | %4
"Asus4" [!5!A,,!4!E,!3!A,!2!D!1!E]2"A" [!5!A,,!4!E,!3!A,!2!C!1!E]6 |] %5

